src/assets/img/logos/logo-serie--linha-do-tempo--black.svg

<svg fill="none" height="42" viewBox="0 0 106 42" width="106" xmlns="http://www.w3.org/2000/svg"><path d="m0 0h101.489" stroke="#e52228" stroke-dasharray="1.02 1.02" stroke-width="1.02157" transform="translate(0 19.9187)"/><path d="m5.08715 2.56432c0 1.41623-1.13879 2.56431-2.54357 2.56431s-2.54358-1.14808-2.54358-2.56431c0-1.41624 1.1388-2.56432 2.54358-2.56432s2.54357 1.14808 2.54357 2.56432z" fill="#e52228" transform="translate(100.47 17.3541)"/><g fill="#000" transform="translate(.01416)"><path d="m15.7418 14.7899.0622-.5222h-7.33514l1.98914-14.2677h-.51797l-2.05135 14.7899z"/><path d="m21.1972 0h-.518l-2.0514 14.7899h.5181z"/><path d="m26.4595 0h-.8082l-2.0513 14.7899h.5387l1.9892-14.12143 6.6307 14.12143h.8909l2.0514-14.7899h-.518l-1.9892 14.2885z"/><path d="m39.5948 7.66651h9.2621l-.9738 7.12339h.518l2.0513-14.7899h-.518l-.9946 7.14427h-9.2621l.9945-7.14427h-.518l-2.0513 14.7899h.518z"/><path d="m59.6657 0h-.9324l-7.4388 14.7899h.5595l2.5901-5.28509h6.7756l1.2018 5.28509h.5595zm-4.9523 8.98256 4.3928-8.585656h.1244l1.9063 8.585656z"/><path d="m2.05135 26.6689-2.05135 14.7899h5.49099c2.94234 0 5.88471-1.4623 6.36121-4.8673l.7046-4.9717c.4765-3.4468-2.0721-4.9509-5.01446-4.9509zm2.15495 11.2805 1.0982-7.7919h1.88559c1.01531 0 1.74054.6476 1.63693 1.4623l-.7045 4.9717c-.1036.7938-1.01532 1.3579-2.03063 1.3579z"/><path d="m14.2924 36.5915c-.4765 3.3842 2.3208 5.0762 5.3667 5.0762 3.191 0 6.3198-1.692 6.7964-5.0762l.7252-5.0553c.4766-3.3841-2.3414-5.0762-5.3874-5.0762-3.0459 0-6.2783 1.6712-6.7756 5.0762zm4.4343-5.0553c.1657-1.1071 1.4711-1.6712 2.6729-1.6712s2.2379.5641 2.0721 1.6712l-.7252 4.9509c-.1658 1.1698-1.4712 1.7129-2.673 1.7129-1.1189 0-2.2171-.5431-2.0721-1.6085z"/><path d="m45.0465 30.0739.4973-3.4259h-11.6658l-.4973 3.4259h3.9577l-1.5541 11.3849h3.7505l1.554-11.3849z"/><path d="m51.0528 30.1993h6.4648l.4973-3.5304h-10.2153l-2.0513 14.7899h10.2153l.4765-3.5303h-6.4648l.3108-2.2143h5.9468l.4559-3.3215h-5.9469z"/><path d="m58.7586 41.4588h3.709l.5802-4.2615.1865-2.9872.0829-.0209 1.2639 5.0762h2.5487l2.6315-5.0762.1036.0209-.6216 2.9872-.6009 4.2615h3.7297l2.0514-14.7899h-3.7091l-4.1234 7.2279-2.072-7.2279h-3.7091z"/><path d="m75.5124 41.4588h3.709l.6009-4.3241h2.3415c3.5432 0 5.5946-2.3397 5.9054-5.1389.2901-2.6739-1.0568-5.3269-4.6415-5.3269h-5.8639zm4.7658-7.6456.518-3.6557h2.155c1.0774 0 1.554.752 1.4297 1.7338-.1243 1.0027-.7874 1.9428-1.9478 1.9219z"/><path d="m89.4811 36.5915c-.4766 3.3842 2.3207 5.0762 5.3667 5.0762 3.191 0 6.3202-1.692 6.7962-5.0762l.725-5.0553c.477-3.3841-2.341-5.0762-5.387-5.0762-3.0459 0-6.2784 1.6712-6.7757 5.0762zm4.4342-5.0553c.1658-1.1071 1.4712-1.6712 2.673-1.6712s2.2378.5641 2.0721 1.6712l-.7253 4.9509c-.1657 1.1698-1.4711 1.7129-2.6729 1.7129-1.1189 0-2.2171-.5431-2.0721-1.6085z"/></g></svg>

<svg width="106" height="42" viewBox="0 0 106 42" fill="none" xmlns="http://www.w3.org/2000/svg">
<path d="M0 0H101.489" transform="translate(0 19.9187)" stroke="#E52228" stroke-width="1.02157" stroke-dasharray="1.02 1.02"/>
<path d="M5.08715 2.56432C5.08715 3.98055 3.94836 5.12863 2.54358 5.12863C1.1388 5.12863 0 3.98055 0 2.56432C0 1.14808 1.1388 0 2.54358 0C3.94836 0 5.08715 1.14808 5.08715 2.56432Z" transform="translate(100.47 17.3541)" fill="#E52228"/>
<path d="M15.7418 14.7899L15.804 14.2677H8.46886L10.458 0H9.94003L7.88868 14.7899H15.7418Z" transform="translate(0.0141602)" fill="black"/>
<path d="M21.1972 0H20.6792L18.6278 14.7899H19.1459L21.1972 0Z" transform="translate(0.0141602)" fill="black"/>
<path d="M26.4595 0H25.6513L23.6 14.7899H24.1387L26.1279 0.66847L32.7586 14.7899H33.6495L35.7009 0H35.1829L33.1937 14.2885L26.4595 0Z" transform="translate(0.0141602)" fill="black"/>
<path d="M39.5948 7.66651H48.8569L47.8831 14.7899H48.4011L50.4524 0H49.9344L48.9398 7.14427H39.6777L40.6722 0H40.1542L38.1029 14.7899H38.6209L39.5948 7.66651Z" transform="translate(0.0141602)" fill="black"/>
<path d="M59.6657 0H58.7333L51.2945 14.7899H51.854L54.4441 9.50481H61.2197L62.4215 14.7899H62.981L59.6657 0ZM54.7134 8.98256L59.1062 0.396904H59.2306L61.1369 8.98256H54.7134Z" transform="translate(0.0141602)" fill="black"/>
<path d="M2.05135 26.6689L0 41.4588H5.49099C8.43333 41.4588 11.3757 39.9965 11.8522 36.5915L12.5568 31.6198C13.0333 28.173 10.4847 26.6689 7.54234 26.6689H2.05135ZM4.2063 37.9494L5.3045 30.1575H7.19009C8.2054 30.1575 8.93063 30.8051 8.82702 31.6198L8.12252 36.5915C8.01892 37.3853 7.1072 37.9494 6.09189 37.9494H4.2063Z" transform="translate(0.0141602)" fill="black"/>
<path d="M14.2924 36.5915C13.8159 39.9757 16.6132 41.6677 19.6591 41.6677C22.8501 41.6677 25.9789 39.9757 26.4555 36.5915L27.1807 31.5362C27.6573 28.1521 24.8393 26.46 21.7933 26.46C18.7474 26.46 15.515 28.1312 15.0177 31.5362L14.2924 36.5915ZM18.7267 31.5362C18.8924 30.4291 20.1978 29.865 21.3996 29.865C22.6014 29.865 23.6375 30.4291 23.4717 31.5362L22.7465 36.4871C22.5807 37.6569 21.2753 38.2 20.0735 38.2C18.9546 38.2 17.8564 37.6569 18.0014 36.5915L18.7267 31.5362Z" transform="translate(0.0141602)" fill="black"/>
<path d="M45.0465 30.0739L45.5438 26.648H33.878L33.3807 30.0739H37.3384L35.7843 41.4588H39.5348L41.0888 30.0739H45.0465Z" transform="translate(0.0141602)" fill="black"/>
<path d="M51.0528 30.1993H57.5176L58.0149 26.6689H47.7996L45.7483 41.4588H55.9636L56.4401 37.9285H49.9753L50.2861 35.7142H56.2329L56.6888 32.3927H50.7419L51.0528 30.1993Z" transform="translate(0.0141602)" fill="black"/>
<path d="M58.7586 41.4588H62.4676L63.0478 37.1973L63.2343 34.2101L63.3172 34.1892L64.5811 39.2654H67.1298L69.7613 34.1892L69.8649 34.2101L69.2433 37.1973L68.6424 41.4588H72.3721L74.4235 26.6689H70.7144L66.591 33.8968L64.519 26.6689H60.8099L58.7586 41.4588Z" transform="translate(0.0141602)" fill="black"/>
<path d="M75.5124 41.4588H79.2214L79.8223 37.1347H82.1638C85.707 37.1347 87.7584 34.795 88.0692 31.9958C88.3593 29.3219 87.0124 26.6689 83.4277 26.6689H77.5638L75.5124 41.4588ZM80.2782 33.8132L80.7962 30.1575H82.9512C84.0286 30.1575 84.5052 30.9095 84.3809 31.8913C84.2566 32.894 83.5935 33.8341 82.4331 33.8132H80.2782Z" transform="translate(0.0141602)" fill="black"/>
<path d="M89.4811 36.5915C89.0045 39.9757 91.8018 41.6677 94.8478 41.6677C98.0388 41.6677 101.168 39.9757 101.644 36.5915L102.369 31.5362C102.846 28.1521 100.028 26.46 96.982 26.46C93.9361 26.46 90.7036 28.1312 90.2063 31.5362L89.4811 36.5915ZM93.9153 31.5362C94.0811 30.4291 95.3865 29.865 96.5883 29.865C97.7901 29.865 98.8261 30.4291 98.6604 31.5362L97.9351 36.4871C97.7694 37.6569 96.464 38.2 95.2622 38.2C94.1433 38.2 93.0451 37.6569 93.1901 36.5915L93.9153 31.5362Z" transform="translate(0.0141602)" fill="black"/>
</svg>
